X:19038
T:Xiraldilla (CT 270)
R:Xiraldilla
C:Tradicional
S:Música Tradicional Asturiana, (C) Tello & Tito. Asturies, 2001.
S:http://pagina.de/MusTradAst <telloytito@asturies.org>
N:Xiraldilla, transcrita en Navia.
O:Navia
A:Asturies
Z:Cancioneru de Torner 270
M:2/4
L:1/8
Q:1/4=114
W:Allá arriba
W:en aquella montaña,
W:un sebastiño
W:niña te aguarda.
W:
W:Dile que no voy,
W:que no voy, que se vaya,
W:dile que no voy
W:porque estoy enamorada;
W:
W:dile que no voy,
W:que no voy, que se vaya,
W:dile que no voy
W:a la fuente por agua.
K:C
|G3 B|d2 _ed|c2 BA|G2 G2|B2 Bc|(d2 _e)d|c2 BA|G2 G2|
|_BB BB|c2 _BB|c2 _BB|c2 c2|dd _BA|(_BG) ^FG|_BB BA|G2 G2|
_BB BB|c2 _BB|c2 _BB|c2 c2|dd _BA|(_BG) ^FG|_B2 BA|G2 G2||


